X:6629
T:The Clergy's Lamentation
O:england
C:Trad
R:Lament
M:C
K:Em
L:1/8
B,A,B,D E2 EF | G2 GA B2 ed | efed B2 AG |1 FGAF EFED :|2 FGAB B,2 E2|\
M:2/4
L:1/8
E4 ||
M:C
L:1/8
|: e2 dB BABd | e2 ef g2 ga | g2 B2 fefg | f2 ed edef | e2 dB g2 fe |
e3 d BdAB | GAGF E2 EF | GFGA BABd | efed B2 AG | FGAB B,2 E2 |\
M:2/4
L:1/8
E4 :||
